!!!COM: Music21
!!!OTL: reel_Magic-Fiddle--The
!!!OMV: reel_Magic-Fiddle--The
**kern
*clefG2
*k[]
*M4/4
=1
4.e
8g
4a
8aL
8bJ
=
8ccL
8bJ
8ccL
8ddJ
8eeL
8aaJ
8ggL
8aaJ
=
4ff#X
4dd
4.dd
8ee
=
8ff#XL
8eeJ
8ffnL
8ggJ
8ffL
8eeJ
8ddL
8aJ
=
4.e
8g
4a
8aL
8bJ
=
8ccL
8bJ
8ccL
8ddJ
8eeL
8aaJ
8ggL
8aaJ
!!linebreak:original
=
4ff#X
4dd
4gg
16ffnLL
16ggJ
8ffJ
=
8eeL
8ccJ
8bL
8ccJ
2a
=||
*M4/4
4.e
8g
4a
8aL
8bJ
=
8ccL
8bJ
8ccL
8ddJ
8eeL
8aaJ
8ggL
8aaJ
=
4ff#X
4dd
4.dd
8ee
=
8ff#XL
8eeJ
8ffnL
8ggJ
8ffL
8eeJ
8ddL
8aJ
!!linebreak:original
=
4.e
8g
4a
8aL
8bJ
=
8ccL
8bJ
8ccL
8ddJ
8eeL
8aaJ
8ggL
8aaJ
=
4ff#X
4dd
4gg
16ffnLL
16ggJ
8ffJ
=
8eeL
8ccJ
8bL
8ccJ
2a
=||
4.ee
8a
4a
4ffn
=
4ff
8eeL
8ffJ
8eeL
8ddJ
8ccL
8aJ
!!linebreak:original
=
4.b
8g
8dL
8gJ
8bL
8gJ
=
8bL
8ddJ
8ccL
8bJ
8aL
8gJ
8eL
8gJ
=
4.ee
8a
4a
4ffn
=
4ff
8eeL
8ffJ
8eeL
8ddJ
8ccL
8aJ
=
8bL
8bJ
8aaL
8bJ
8bL
8ggJ
8bL
8bJ
=
8eeL
8ccJ
8bL
8ccJ
2a
!!linebreak:original
=||
4.ee
8a
4a
4ffn
=
4ff
8eeL
8ffJ
8eeL
8ddJ
8ccL
8aJ
=
4.b
8g
8dL
8gJ
8bL
8gJ
=
8bL
8ddJ
8ccL
8bJ
8aL
8gJ
8eL
8gJ
=
4.ee
8a
4a
4ffn
=
4ff
8eeL
8ffJ
8eeL
8ddJ
8ccL
8aJ
!!linebreak:original
=
8bL
8bJ
8aaL
8bJ
8bL
8ggJ
8bL
8bJ
=
8eeL
8ccJ
8bL
8ccJ
2a
=||
*-
